X:1
T:Holon
T:D Major         Hezekiah Moors, 1809
T:Transcribed from Province Harmony, 1809.
T:John Willison, 1747
%%score [ 1 2 3 ]
L:1/8
Q:1/4=90
M:2/4
K:D
V:1 treble nm="Tr." snm="Tr."
V:2 treble-8 nm="T." snm="T."
V:3 bass nm="B." snm="B."
V:1
 F | F2 F2 | F2 GA/B/ | A2 A2 | A3 A | BA =cB | A2 d2 | c4 | d2 d3/2 d/ | dc BA | d2 d2 | B3 A | %12
w: ||||||||||||
 d2 dc | B2 A2 | A4 | z2 A2 | A2 A2 | A2 cd/e/ | d2 d2 | d2 z d | e2 z f | e2 d2 | c2 z A | B2 c2 | %24
w: ||||||||||||
 d2 ed | c2 B2 | (B A2) G | F2 EF | G2 E2 | F4 | z2 F2 | G2 F2 | E2 DE/F/ | E2 D2 | (D C2) C | %35
w: |||||||||||
 DF FE | FB ^A2 | !fermata!B2 z d | c2 B2 | AG FE | A2 F2 | Ad cd | AF GE | DEF B | AGF E | %45
w: ||||||||||
 FGA B/c/ | d2 c2 | d4 ||[M:6/8][Q:1/4=70] z6 | z6 | z6 | z6 | z6 | z6 | z6 | z6 || z2 F F>G F | %57
w: |||||||||||To him * who|
 F>E D D>C D | E2 c/B/ A2 B/A/ | G>F B !fermata!A2 B/A/ | G2 F B2 A | c3 d2 c | B>A B F2 E | %63
w: made * us kings * and|priests, To * God his *|Fa- * ther high, Be *|glo- ry and do-|min- ion Thro'|all * e- ter- ni-|
 [DF]3- [DF]3 | z2 A B>c B | B>A G G>F ^G | A2 B/A/ G2 A/G/ | F>E E !fermata!E2 z | A2 f/ e/ d2 c | %69
w: ty. *|The hosts * a-|bove * their ho- * mage|pay, And * crowns cast *|on * the ground,|They ne- ver cease by|
 B2 c/B/ A2 F | G>A B B2 A | A3- A3 ||[M:2/4][Q:1/4=90] !fermata!f2 z2 | e c z2 | d A z2 | B2 B2 | %76
w: night nor * day, Their|prai- * ses to re-|sound. *|||||
 BA z A | c3 d | A2 f2 | fe z A | c2 d2 | B2 z B | c2 B2 | c2 z d | BA G2 | F2 E2 | F4 | f e z2 | %88
w: ||||||||||||
 f e z f | ef ed | c2 z A | z4 | BA GF | G2 A2 | !fermata!B2 z2 | d2 d B | G2 e/f/g | f2 e2 | %98
w: ||||||||||
 d2 z E | F2 G/A/B | A2 G2 | F4 | z2 G2 | F F z2 | A2 z A | c2 d2 | [Be]2 z f/e/ | d2 c2 | %108
w: ||||||||||
 B2 c[Bd] | [Ae]2 z f | e2 d2 | c2 d2 | ed cB | !wedge!c2 z d/e/ | f2 gf | e2 fg | a2 g2 | f2 e2 | %118
w: ||||||||||
 f4 |] %119
w: |
V:2
 D | D2 D2 | D2 EF/G/ | F2 F2 | F3 F | GF AG | F2 ^G2 | A4 | A2 A3/2 A/ | BA dc | B2 A2 | ^G3 A | %12
w: May|we have|grace and * *|peace with|God, The|glo- * rious *|one in|three,|Who us cre-|a- * ted *|and re-|deemed, And|
 B2 A2 | d2 c2 | d4 | z2 d2 | d2 d2 | d2 ef/g/ | f2 f2 | f2 z f | g2 z a | g2 f2 | e2 z c | d2 e2 | %24
w: us doth|sanc- ti-|fy.|E'en|from the|Fa- ther, * *|who still|was, Who|is, and|still shall|be, And|from the|
 f2 gf | e2 d2 | (d c2) c | dc BA | B2 c2 | d4 | z2 A2 | B2 A2 | G2 FG/A/ | G2 F2 | (F E2) E | %35
w: seven- fold *|wor- king|Sp'rit, * Be-|fore * his *|throne on|high;|From|Je- sus|Christ, the * *|wit- ness|true, * And|
 FA Bc | d2 c2 | !fermata!B2 z A | A2 G2 | FE AG | F2 A2 | cB ed | c2 B2 | AGF E | FGA d | cBA G | %46
w: first- * born *|from the|dead, Who|of all|earth- * ly *|kings and|powers * Is *|prince and|ru- * * ling|head, * * Is|prince * * and|
 F2 E2 | D4 ||[M:6/8] z6 | z6 | z6 | z6 | z6 | z6 | z6 | z6 || z2 A A>B A | A>G F F>E F | %58
w: ru- ling|head.|||||||||||
 G2 A/G/ F2 G/F/ | E>F ^G !fermata!A2 d/c/ | B2 A d2 c | e3 f2 e | d>c d A2 G | F3- F3 | %64
w: ||||||
 z2 c d>e d | d>c B B>A B | c2 d/c/ B2 c/B/ | A>^G A !fermata!A2 z | d2 a/ g/ f2 e | d2 e/d/ c2 A | %70
w: ||||||
 B>c d d2 c | d3- d3 ||[M:2/4] !fermata!d2 z2 | c A z2 | f d z2 | g2 g2 | gf z d | e3 f | d2 d2 | %79
w: ||O|ho- ly,|ho- ly,|ho- ly|Lord, * Al-|migh- ty|God a-|
 dc z d | e2 f2 | g2 z ^g | a2 g2 | a2 z b | gf e2 | d2 c2 | d4 | d c z2 | d c z d | cd cB | %90
w: lone, * Who|ev- er|was, and|al- so|is, And|ev- * er|is to|come,|Glo- ry,|po- wer, and|ho- * nor *|
 A2 z F | z4 | GF ED | E2 F2 | !fermata!G2 z2 | A2 B B | E2 c/d/e | d2 c2 | B2 z G | A2 E/F/G | %100
w: still, Thou'rt||wor- * thy *|to re-|ceive;|All things were|made to * *|please thy|will, And|by thy * *|
 F2 E2 | D4 | z2 B2 | c A z2 | d2 z d | e2 f2 | g2 z a/g/ | f2 e2 | d2 ed | c2 z d | c2 d2 | %111
w: plea- sure|live.|Most|wor- thy|Lamb, art|thou, they|sing, To *|be a-|do- red *|thus; Let|with thy|
 e2 d2 | cB cd | !wedge!e2 z f/e/ | d2 ef | g2 ag | f2 e2 | d2 c2 | d4 |] %119
w: praise heav'n's|man- * sions *|ring, For *|thou wast *|slain, For *|thou wast|slain for|us.|
V:3
 D, | D,2 D,2 | D,2 C,2 | D,2 D,2 | D,3 D, | D,2 D,2 | D,2 E,2 | A,,4 | D,2 D,3/2 D,/ | D,2 D,2 | %10
w: ||||||||||
 G,2 F,2 | E,3 A,, | D,2 F,2 | G,2 A,2 | D,4 | z2 D,2 | D,2 D,2 | D,2 C,2 | D,2 D,2 | D,2 z D, | %20
w: ||||||||||
 G,2 z D | G,2 D,2 | A,2 z A,, | D,2 A,,2 | D,2 C,D, | E,2 E,2 | A,,3 A,, | D,2 G,F, | E,2 A,2 | %29
w: |||||||||
 D,4 | z2 D,2 | D,2 D,2 | C,2 F,2 | C,2 D,2 | A,,3 A,, | D,2 DC | B,2 F,2 | !fermata!B,2 z D, | %38
w: |||||||||
 A,,2 D,2 | A,2 A,2 | A,2 A,2 | A,G, CB, | A,2 G,2 | F,E,D, A,, | D,E,F, B, | A,G,F, E, | %46
w: ||||||||
 D,2 A,,2 | D,4 ||[M:6/8] z2 D, D,2 D, | C,2 D, E,2 F, | G,2 G, F,2 D, | E,2 F, !fermata!B,,2 A,, | %52
w: ||To this great|Lord, who so loved|men, Such loath- some|men as we, As|
 D,2 A,/G,/ F,2 E, | D,2 A,, D,2 D, | E,2 F, G,2 A, | D,3- D,3 || z6 | z6 | z6 | z6 | z6 | z6 | %62
w: washed us * in his|pre- cious blood, Our|souls from sin to|free; *|||||||
 z6 | z6 | z6 | z6 | z6 | z6 | z6 | z6 | z6 | z6 ||[M:2/4] !fermata!D,2 z2 | A,, A,, z2 | %74
w: ||||||||||||
 D, D, z2 | G,2 G,,2 | D,2 z D, | A,3 F, | D2 D,2 | A,2 z D, | A,,2 D,2 | G,2 z E, | A,2 E,2 | %83
w: |||||||||
 A,2 z D, | E,F, G,E, | A,2 A,,2 | D,4 | D A, z2 | D A, z D, | A,2 E,2 | A,,2 z D, | z4 | D,2 D,2 | %93
w: ||||||||||
 G,2 F,2 | !fermata!E,2 z2 | D,2 B,, B,, | C,2 C,2 | D,2 E,2 | B,,2 z B, | F,2 E,2 | A,2 A,,2 | %101
w: ||||||||
 D,4 | z2 E,2 | A, F, z2 | D,2 z D, | A,2 D2 | G,2 z F,/G,/ | A,2 A,2 | E,2 E,2 | A,2 z D, | %110
w: |||||||||
 A,,2 D,2 | A,2 D,2 | E,2 E,2 | !wedge!A,,2 z A,, | %114
w: ||||
"__________________________________________________________________________________________\nEdited by B C. Johnston, 2018\n   1. Instrumental interludes omitted, after measures 48 and 87.\n   2. Grace eighth notes converted to normal eighth notes for \nTenor \nand \nTreble \nin measures 27, 35, and 80.\n   3. Doubled \nBass \nsolo an octave lower, measures 49-56, is outside normal range, so omitted. \n" D,2 C,D, | %115
w: |
 E,2 D,E, | F,2 G,2 | A,2 A,2 | D,4 |] %119
w: ||||

